X:1
T:Title
%%score { ( 1 4 ) | ( 2 3 ) }
L:1/8
Q:1/4=75
M:6/8
K:F
V:1 treble nm="Grand Piano"
V:4 treble 
V:2 bass 
V:3 bass 
V:1
 [CA]FG ABA | [CA]2 F A3 | [CA]BA AGF | [G,E]2 F G3 | [CA]FG ABA | [CA]2 [_Ec] [DB]3 | %6
w: J.~M.~Black * * * * *||||||
[M:13/16] [B,G]ABAA3/2G |[M:3/4] [A,F]6 |[Q:1/4=90] [DF]3 [DF]2 [DF] | B6 | A3 A2 B | c6 | %12
w: ||||||
 c3 c2 d | c3 A3 | FF FA AA | [EG]6 | F3 F2 G | A6 | A3 A2 B | c6 | c3 c2 d | %21
w: |||||||||
[M:7/8] c2 A [DF]3 [DFG] | [FA][FA]3/2[FA][EG][EG]3/2G |[M:3/4] F6 |] %24
w: |||
V:2
 z A,B, CDC | z2 A, C3 | z[K:treble] DC CB,A, | z2 A, B,3 | z A,B, CDC | %5
 [F,,F,]2 [F,,F,] [B,,,B,,]3 |[M:13/16] z CDCC3/2B, |[M:3/4] [F,,F,]6 | [B,,B,]3 [B,,B,]2 [B,,B,] | %9
 z2 z[K:treble] .D3 | [F,CF]3 [F,CF]2 [F,B,F] | [F,A,F]6 | [F,A,F]3 [F,A,F]2 [F,B,F] | %13
 [F,A,F]3 [F,CF]3 | [F,A,C][F,A,C] [F,A,C][F,CF] [F,CF][F,CF] | [C,C]6 | %16
 [F,A,C]3 [F,A,C]2 [F,B,C] | [F,CF]6 | [F,CF]3 [F,CF]2 [F,B,F] | [F,A,F]6 | %20
 [F,A,F]3 [F,A,F]2 [F,B,F] |[M:7/8] [F,A,F]2 [F,_EF] B,,3 B,, | %22
 [C,C][C,C]3/2[C,C][C,C][C,C]3/2[C,B,C] |[M:3/4] [F,A,C]6 |] %24
V:3
 [F,,F,]6 | [F,,F,]6 | [F,,F,]6[K:treble] | [C,,C,]6 | [F,,F,]6 | x6 | %6
[M:13/16] [C,,B,,]/-[C,,B,,]/-[C,,B,,]/-[C,,B,,]/-[C,,B,,]/-[C,,B,,]/-[C,,B,,]/-[C,,B,,]/-[C,,B,,]-<[C,,B,,] z/ | %7
[M:3/4] x6 | x6 | B,,6[K:treble] | x6 | x6 | x6 | x6 | x6 | x6 | x6 | x6 | x6 | x6 | x6 | %21
[M:7/8] x7 | x7 |[M:3/4] x6 |] %24
V:4
 x6 | x6 | x6 | x6 | x6 | x6 |[M:13/16] x13/2 |[M:3/4] x6 | x6 | [B,D]3 .F3 | x6 | x6 | x6 | x6 | %14
 x6 | x6 | x6 | x6 | x6 | x6 | x6 |[M:7/8] x7 | x7 |[M:3/4] x6 |] %24

